X: 2
T: Miss Johnson
R: reel
M: 4/4
L: 1/8
K: Gmaj
|: Bd cA GG | DG BA Gg | fd cA GD | (3EFG AB cA :||: Bd ^ce dd | Bd ga (3bag | Bd ^ce df | a2 fa (3gfe :|


Tune 2411	Setting 2411

